dist/img/logo.svg

<svg width="127" height="72" viewBox="0 0 127 72" fill="#fff" xmlns="http://www.w3.org/2000/svg">
<path d="M58.9 57.825C59.0833 57.8417 59.2917 57.8583 59.525 57.875C59.775 57.875 60.0667 57.875 60.4 57.875C62.35 57.875 63.7917 57.3833 64.725 56.4C65.675 55.4167 66.15 54.0583 66.15 52.325C66.15 50.5083 65.7 49.1333 64.8 48.2C63.9 47.2667 62.475 46.8 60.525 46.8C60.2583 46.8 59.9833 46.8083 59.7 46.825C59.4167 46.825 59.15 46.8417 58.9 46.875V57.825ZM70.175 52.325C70.175 53.825 69.9417 55.1333 69.475 56.25C69.0083 57.3667 68.3417 58.2917 67.475 59.025C66.625 59.7583 65.5833 60.3083 64.35 60.675C63.1167 61.0417 61.7333 61.225 60.2 61.225C59.5 61.225 58.6833 61.1917 57.75 61.125C56.8167 61.075 55.9 60.9583 55 60.775V43.9C55.9 43.7333 56.8333 43.625 57.8 43.575C58.7833 43.5083 59.625 43.475 60.325 43.475C61.8083 43.475 63.15 43.6417 64.35 43.975C65.5667 44.3083 66.6083 44.8333 67.475 45.55C68.3417 46.2667 69.0083 47.1833 69.475 48.3C69.9417 49.4167 70.175 50.7583 70.175 52.325ZM84.3979 61C84.2145 60.4 84.0062 59.7833 83.7729 59.15C83.5562 58.5167 83.3395 57.8833 83.1229 57.25H76.3729C76.1562 57.8833 75.9312 58.5167 75.6979 59.15C75.4812 59.7833 75.2812 60.4 75.0979 61H71.0479C71.6979 59.1333 72.3145 57.4083 72.8979 55.825C73.4812 54.2417 74.0479 52.75 74.5979 51.35C75.1645 49.95 75.7145 48.625 76.2479 47.375C76.7979 46.1083 77.3645 44.875 77.9479 43.675H81.6729C82.2395 44.875 82.7979 46.1083 83.3479 47.375C83.8979 48.625 84.4479 49.95 84.9979 51.35C85.5645 52.75 86.1395 54.2417 86.7229 55.825C87.3062 57.4083 87.9229 59.1333 88.5729 61H84.3979ZM79.7229 47.6C79.6395 47.85 79.5145 48.1917 79.3479 48.625C79.1812 49.0583 78.9895 49.5583 78.7729 50.125C78.5562 50.6917 78.3145 51.3167 78.0479 52C77.7979 52.6833 77.5395 53.4 77.2729 54.15H82.1979C81.9312 53.4 81.6729 52.6833 81.4229 52C81.1729 51.3167 80.9312 50.6917 80.6979 50.125C80.4812 49.5583 80.2895 49.0583 80.1229 48.625C79.9562 48.1917 79.8229 47.85 79.7229 47.6ZM102.39 57.65V61H90.8154V43.675H94.7154V57.65H102.39ZM108.762 50.8C109.462 49.6167 110.129 48.4333 110.762 47.25C111.395 46.0667 111.979 44.875 112.512 43.675H116.812C115.862 45.5417 114.879 47.35 113.862 49.1C112.845 50.85 111.77 52.6083 110.637 54.375V61H106.737V54.425C105.604 52.6583 104.52 50.8917 103.487 49.125C102.47 47.3583 101.487 45.5417 100.537 43.675H105.062C105.595 44.875 106.17 46.0667 106.787 47.25C107.404 48.4333 108.062 49.6167 108.762 50.8Z" fill="white"/>
<path d="M11 2L11.9845 0.259067L9.52491 3.3506L11 2ZM33.6154 26.7L35.1391 25.4045L35.1153 25.3765L35.0905 25.3494L33.6154 26.7ZM38.6451 59H36.6451V61H38.6451V59ZM74 2L75.4751 3.3506L73.0155 0.259067L74 2ZM51.3846 26.7L49.9095 25.3494L49.8847 25.3765L49.8609 25.4045L51.3846 26.7ZM46.3549 59V61H48.3549V59H46.3549ZM42.5 19.8125L41.5155 21.5534L42.5 22.1101L43.4845 21.5534L42.5 19.8125ZM9.52491 3.3506L32.1403 28.0506L35.0905 25.3494L12.4751 0.649404L9.52491 3.3506ZM32.0917 27.9955C33.2575 29.3667 35.8893 33.5094 36.4761 38.3411L40.4469 37.8589C39.7415 32.0506 36.6656 27.2 35.1391 25.4045L32.0917 27.9955ZM36.4761 38.3411C36.7814 40.8542 36.8307 44.7086 36.7957 48.657C36.7617 52.4999 36.6451 56.5237 36.6451 59H40.6451C40.6451 56.4888 40.7598 52.7226 40.7955 48.6924C40.8303 44.7676 40.7879 40.6658 40.4469 37.8589L36.4761 38.3411ZM38.6451 61H44.7395V57H38.6451V61ZM72.5249 0.649404L49.9095 25.3494L52.8597 28.0506L75.4751 3.3506L72.5249 0.649404ZM49.8609 25.4045C48.3344 27.2 45.2585 32.0506 44.5531 37.8589L48.5239 38.3411C49.1107 33.5094 51.7425 29.3667 52.9083 27.9955L49.8609 25.4045ZM44.5531 37.8589C44.2121 40.6658 44.1697 44.7676 44.2044 48.6924C44.2402 52.7226 44.3549 56.4888 44.3549 59H48.3549C48.3549 56.5237 48.2383 52.4999 48.2043 48.657C48.1693 44.7086 48.2186 40.8542 48.5239 38.3411L44.5531 37.8589ZM46.3549 57H40.2605V61H46.3549V57ZM10.0155 3.74093L41.5155 21.5534L43.4845 18.0716L11.9845 0.259067L10.0155 3.74093ZM73.0155 0.259067L41.5155 18.0716L43.4845 21.5534L74.9845 3.74093L73.0155 0.259067Z" fill="white"/>
<circle cx="42.5" cy="5.5" r="5.5" fill="white"/>
<path d="M7.2 43.475C9.78333 43.475 11.7667 43.9333 13.15 44.85C14.5333 45.75 15.225 47.2333 15.225 49.3C15.225 51.3833 14.525 52.8917 13.125 53.825C11.725 54.7417 9.725 55.2 7.125 55.2H5.9V61H2V43.925C2.85 43.7583 3.75 43.6417 4.7 43.575C5.65 43.5083 6.48333 43.475 7.2 43.475ZM7.45 46.8C7.16667 46.8 6.88333 46.8083 6.6 46.825C6.33333 46.8417 6.1 46.8583 5.9 46.875V51.875H7.125C8.475 51.875 9.49167 51.6917 10.175 51.325C10.8583 50.9583 11.2 50.275 11.2 49.275C11.2 48.7917 11.1083 48.3917 10.925 48.075C10.7583 47.7583 10.5083 47.5083 10.175 47.325C9.85833 47.125 9.46667 46.9917 9 46.925C8.53333 46.8417 8.01667 46.8 7.45 46.8ZM18.0889 61V43.675H29.7889V46.95H21.9889V50.35H28.9139V53.55H21.9889V57.725H30.3639V61H18.0889Z" fill="white"/>
</svg>

<svg width="127" height="72" fill="#fff" xmlns="http://www.w3.org/2000/svg"><path d="M58.9 57.825c.183.017.392.033.625.05h.875c1.95 0 3.392-.492 4.325-1.475.95-.983 1.425-2.342 1.425-4.075 0-1.817-.45-3.192-1.35-4.125-.9-.933-2.325-1.4-4.275-1.4-.267 0-.542.008-.825.025-.283 0-.55.017-.8.05v10.95zm11.275-5.5c0 1.5-.233 2.808-.7 3.925-.467 1.117-1.133 2.042-2 2.775-.85.733-1.892 1.283-3.125 1.65s-2.617.55-4.15.55c-.7 0-1.517-.033-2.45-.1a18.8 18.8 0 0 1-2.75-.35V43.9c.9-.167 1.833-.275 2.8-.325a38.13 38.13 0 0 1 2.525-.1c1.483 0 2.825.167 4.025.5 1.217.333 2.258.858 3.125 1.575s1.533 1.633 2 2.75c.467 1.117.7 2.458.7 4.025zM84.398 61c-.183-.6-.392-1.217-.625-1.85l-.65-1.9h-6.75a86.64 86.64 0 0 1-.675 1.9c-.217.633-.417 1.25-.6 1.85h-4.05c.65-1.867 1.266-3.592 1.85-5.175a223.57 223.57 0 0 1 1.7-4.475 229.86 229.86 0 0 1 1.65-3.975c.55-1.267 1.117-2.5 1.7-3.7h3.725c.567 1.2 1.125 2.433 1.675 3.7.55 1.25 1.1 2.575 1.65 3.975.566 1.4 1.141 2.892 1.725 4.475.583 1.583 1.2 3.308 1.85 5.175h-4.175zm-4.675-13.4c-.084.25-.209.592-.375 1.025l-.575 1.5c-.217.567-.459 1.192-.725 1.875-.25.683-.508 1.4-.775 2.15h4.925a251.91 251.91 0 0 0-.775-2.15 50.793 50.793 0 0 0-.725-1.875l-.575-1.5a88.07 88.07 0 0 0-.4-1.025zm22.667 10.05V61H90.815V43.675h3.9V57.65h7.675zm6.372-6.85a94.813 94.813 0 0 0 2-3.55 54.371 54.371 0 0 0 1.75-3.575h4.3a110.92 110.92 0 0 1-2.95 5.425 141.18 141.18 0 0 1-3.225 5.275V61h-3.9v-6.575a151.146 151.146 0 0 1-3.25-5.3 120.19 120.19 0 0 1-2.95-5.45h4.525a63.36 63.36 0 0 0 1.725 3.575 75.853 75.853 0 0 0 1.975 3.55zM11 2l.985-1.74-2.46 3.09L11 2zm22.615 24.7l1.524-1.296-.024-.027-.025-.028-1.475 1.351zm5.03 32.3h-2v2h2v-2zM74 2l1.475 1.35-2.46-3.09L74 2zM51.385 26.7l-1.475-1.35-.025.026-.024.028 1.524 1.296zM46.355 59v2h2v-2h-2zM42.5 19.812l-.984 1.741.984.557.984-.557-.984-1.74zM9.525 3.352l22.615 24.7 2.95-2.702L12.476.65l-2.95 2.702zm22.567 24.645c1.166 1.37 3.797 5.513 4.384 10.345l3.97-.482c-.704-5.808-3.78-10.659-5.307-12.455l-3.047 2.591zm4.384 10.345c.305 2.513.355 6.368.32 10.316-.034 3.843-.15 7.867-.15 10.343h4c0-2.511.114-6.277.15-10.308.034-3.924-.008-8.026-.35-10.833l-3.97.482zM38.646 61h6.093v-4h-6.094v4zM72.524.65l-22.616 24.7 2.95 2.7 22.616-24.7-2.95-2.7zM49.86 25.404c-1.527 1.795-4.602 6.646-5.308 12.454l3.97.482c.588-4.832 3.22-8.974 4.385-10.346l-3.047-2.59zm-5.308 12.454c-.34 2.807-.383 6.909-.349 10.833.036 4.03.15 7.797.15 10.308h4c0-2.476-.116-6.5-.15-10.343-.035-3.948.015-7.803.32-10.316l-3.97-.482zM46.355 57H40.26v4h6.094v-4zM10.015 3.74l31.5 17.813 1.97-3.481L11.984.259l-1.97 3.482zm63-3.48l-31.5 17.812 1.97 3.481 31.5-17.812-1.97-3.482z"/><circle cx="42.5" cy="5.5" r="5.5"/><path d="M7.2 43.475c2.583 0 4.567.458 5.95 1.375 1.383.9 2.075 2.383 2.075 4.45 0 2.083-.7 3.592-2.1 4.525-1.4.917-3.4 1.375-6 1.375H5.9V61H2V43.925c.85-.167 1.75-.283 2.7-.35.95-.067 1.783-.1 2.5-.1zm.25 3.325c-.283 0-.567.008-.85.025-.267.017-.5.033-.7.05v5h1.225c1.35 0 2.367-.183 3.05-.55.683-.367 1.025-1.05 1.025-2.05 0-.483-.092-.883-.275-1.2a1.807 1.807 0 0 0-.75-.75c-.317-.2-.708-.333-1.175-.4a8.85 8.85 0 0 0-1.55-.125zM18.089 61V43.675h11.7v3.275h-7.8v3.4h6.925v3.2h-6.925v4.175h8.375V61H18.089z"/></svg>
